X: 1
T: Suomalainen polkka
O: Trad
M: 2/4
L: 1/16
Z: John Chambers <jc@trillian.mit.edu>
K: Am
|: "Am"e2ef edcB | A2Ac A2Ac \
| "E7"B2E2 E^GB2 |1,3 "Am"cBA^G ABcd :|2,4 "Am"cBA2  A4 :|
|: "Am"{B}c2E2 "E7"B2E2 | "Am"ABcB "E7"E2B2 \
|  "Am"{B}c2E2 "E7"B2E2 | "Am"ABcB "E7"E2B2 \
|  "Am"{B}c2E2 "E7"B2E2 | "Am"A2ce a2a2 \
|  "E7"^gbg^f e2fg | "Am"a2a2 a4 :|
